X:1
T:Title
%%score 1 2 3 4
L:1/8
M:3/4
K:F
V:1 treble nm="Choir Aahs"
V:2 bass nm="Choir Aahs"
V:3 bass nm="Choir Aahs"
V:4 bass nm="Choir Aahs"
V:1
 A4 FG | A2 A4 | B2 G>F G2 | G2 A4 | z2 A4 | d>e dc/B/ A2 | A4 F2 | E2 F4 | z2 F4 | A>B A2 G2 | %10
 F4 A2 | c4 d/e/f | e6 | z2 A4 | A>G F2 A2 | A/B/c A4 | A6 |] %17
V:2
 F,4 F,2 | E,2 D,4 | F,2 G,4 | F,2 E,4 | z2 E,4 | F,>G, F,>E, A,2 | E,4 D,2 | C,2 C,4 | z2 D,4 | %9
 F,>G, F,2 G,2 | F,4 F,E,/D,/ | C,4 G,2 | E,6 | z2 E,4 | F,4 F,2 | E,4 E,2 | D,6 |] %17
V:3
 D,4 D,E, | F,G, A,4 | D2 E>D C2 | B,2 A,4 | z2[K:bass] A,4 | F,>E, F,>G, A,2 | C4 B,A, | G,2 F,4 | %8
 z2[K:treble] A,4 | D>C D2 E2 | D4[K:bass] D,E, | F,>E, F,2 G,2 | A,6 | z2 A,4 | %14
 F,>G,[K:treble] A,2 D2 | E2 C4 | D6 |] %17
V:4
 D,4 A,F, | G,E, D,4 | D,2 C,4 | E,2 A,,4 | z2 A,,4 | D,>C, D,>E, F,2 | A,,4 B,,2 | C,2 F,,4 | %8
 z2 D,4 | D,4 C,2 | D,4 A,G, | F,>G, F,2 E,2 | A,,6 | z2 A,,4 | D,>E, F,2 D,2 | A,,4 A,,2 | D,6 |] %17

